modules/hawcons-stroke/icons/whistle.svg

<?xml version="1.0" encoding="UTF-8" standalone="no"?>
<svg width="32px" height="32px" viewBox="0 0 32 32" version="1.1" xmlns="http://www.w3.org/2000/svg" xmlns:xlink="http://www.w3.org/1999/xlink" xmlns:sketch="http://www.bohemiancoding.com/sketch/ns">
    <!-- Generator: Sketch 3.0.3 (7891) - http://www.bohemiancoding.com/sketch -->
    <title>icon 38 whistle</title>
    <desc>Created with Sketch.</desc>
    <defs></defs>
    <g id="Page-1" stroke="none" stroke-width="1" fill="none" fill-rule="evenodd" sketch:type="MSPage">
        <g id="icon-38-whistle" sketch:type="MSArtboardGroup" fill="#929292">
            <path d="M8.2130202,17.4097165 C8.90995676,14.8678088 11.2368533,13 14,13 L15,13 L15,15 L18,15 L18,13 L28,13 L28,16 L19.8680255,17.742566 L19.8680255,17.742566 C19.9544954,18.1480563 20,18.5687141 20,19 C20,22.3137085 17.3137085,25 14,25 C11.2368533,25 8.90995676,23.1321912 8.2130202,20.5902835 C7.87655372,20.8473211 7.4561069,21 7,21 C5.8954305,21 5,20.1045695 5,19 C5,17.8954305 5.8954305,17 7,17 C7.4561069,17 7.87655372,17.1526789 8.2130202,17.4097165 L8.2130202,17.4097165 L8.2130202,17.4097165 Z M19,14 L27,14 L27,15.2000122 L18.5890081,17.0116026 C18.8534202,17.6210011 19,18.2933828 19,19 C19,21.7614237 16.7614237,24 14,24 C11.2385763,24 9,21.7614237 9,19 C9,16.5835588 10.7141872,14.5674875 12.9928784,14.1014691 C13.3181951,14.0349382 13.6550175,14 14,14 L14,16 L19,16 L19,14 L19,14 L19,14 Z M7,18 C6.44771525,18 6,18.4438648 6,19 C6,19.5522847 6.44386482,20 7,20 C7.55228475,20 8,19.5561352 8,19 C8,18.4477153 7.55613518,18 7,18 L7,18 Z M16,7 L16,11 L17,11 L17,7 L16,7 L16,7 Z M21.1196771,8.02099498 L19,11.4131874 L19.8480481,11.9431066 L21.9677252,8.55091425 L21.1196771,8.02099498 L21.1196771,8.02099498 Z M11.8480481,8.02099498 L13.9677252,11.4131874 L13.1196771,11.9431066 L11,8.55091425 L11.8480481,8.02099498 L11.8480481,8.02099498 Z" id="whistle" sketch:type="MSShapeGroup"></path>
        </g>
    </g>
</svg>

<svg width="32" height="32" viewBox="0 0 32 32" xmlns="http://www.w3.org/2000/svg"><path d="M8.213 17.41A6.003 6.003 0 0 1 14 13h1v2h3v-2h10v3l-8.132 1.743A6 6 0 0 1 8.213 20.59a2 2 0 1 1 0-3.18v-.001zM19 14h8v1.2l-8.411 1.812A5 5 0 1 1 14 14v2h5v-2zM7 18c-.552 0-1 .444-1 1 0 .552.444 1 1 1 .552 0 1-.444 1-1 0-.552-.444-1-1-1zm9-11v4h1V7h-1zm5.12 1.021L19 11.413l.848.53 2.12-3.392-.848-.53zm-9.272 0l2.12 3.392-.848.53L11 8.551l.848-.53z" fill="#929292" fill-rule="evenodd"/></svg>
